X: 07007
T: ASHER'S HORNPIPE
C: Bob McQuillen 28 Jan 89
B: Bob's Note Book 7 #7
%R: hornpipe, reel
Z: 2020 John Chambers <jc:trillian.mit.edu>
M: C
L: 1/8
K: E
B,D \
| EDEG E2GA | BABc B2B,2 | E2EF GEGB | AGEB, D2B,D |\
| EDEG E2GA | BABc BABd  | edBG ABGE | B,2E2 E2 :|
|: Bd \
| e2eg edge | dedB d2Bd | edeg edBA | GEDB, D2Bd |\
| e2eg edBA | GABG ABde | dBed BGAB | G2E2 E2 :|
%%begintext align
%% Asher Miller is
%% Roddy's sone (Jane who?); he's in the 3rd grade
%% and can already play the "Dancing Bear" on
%% his fiddle. So here's a tune of your own, Asher,
%% with love from Bob.
%%endtext

%%sep 1 1 500

%%sep 1 1 500

